X: 18392
T: Hunstsman, The
R: jig
M: 6/8
K: Amajor
A(B/c/d) e2 A|Aed BAG|EFG A(B/c/d)|eae gfe|cde .g2(g|g)ag edg|edB ~d2 d|BAG A3:|
|:a3 ged|cde ged|eAA AGA|BA cA dA|ecA dBG|A(B/c/d) cAG|eae ged|BAG A3:|

